svg/cordova.svg

<svg viewBox="0 0 20 20" xmlns="http://www.w3.org/2000/svg">
<rect width="100%" height="100%" fill="#202628"/>
<path d="M15.9331 16.8518H13.5858L13.7495 14.8729H12.5964L12.4326 16.8518H7.56741L7.40365 14.8729H6.25047L6.41424 16.8518H4.06694L2.75 8.27459L6.04576 3H13.9542L17.25 8.27459L15.9331 16.8518ZM13.2924 5.64071H11.1771L11.3204 6.63012H8.67965L8.82294 5.64071H6.70765L5.38388 8.27459L6.04576 13.5492H13.9542L14.6161 8.27459L13.2924 5.64071ZM12.1392 11.8024C11.9549 11.8024 11.8116 11.2565 11.8116 10.5741C11.8116 9.89176 11.9618 9.34588 12.1392 9.34588C12.3234 9.34588 12.4667 9.89176 12.4667 10.5741C12.4667 11.2565 12.3234 11.8024 12.1392 11.8024ZM7.98365 11.9047C7.79941 11.9047 7.65612 11.3588 7.65612 10.6765C7.65612 9.99412 7.80624 9.44823 7.98365 9.44823C8.16788 9.44823 8.31118 9.99412 8.31118 10.6765C8.31118 11.3588 8.16106 11.9047 7.98365 11.9047Z" fill="white"/>
</svg>

<svg xmlns="http://www.w3.org/2000/svg" viewBox="0 0 20 20">
  <rect width="100%" height="100%" fill="#202628"/>
  <path fill="#fff" d="M15.93 16.85H13.6l.16-1.98H12.6l-.17 1.98H7.57l-.17-1.98H6.25l.16 1.98H4.07L2.75 8.27 6.05 3h7.9l3.3 5.27-1.32 8.58ZM13.3 5.65h-2.11l.14.98H8.68l.14-.99H6.71L5.38 8.27l.67 5.28h7.9l.67-5.28-1.33-2.63Zm-1.15 6.15c-.19 0-.33-.54-.33-1.23 0-.68.15-1.22.33-1.22.18 0 .33.54.33 1.22 0 .69-.15 1.23-.33 1.23Zm-4.16.1c-.18 0-.32-.54-.32-1.22 0-.69.15-1.23.32-1.23.19 0 .33.54.33 1.23 0 .68-.15 1.22-.33 1.22Z"/>
</svg>
